X:13
T:Dalaigh's
Z: id:dc-polka-11
M:2/4
L:1/8
K:A Dorian
g>f|eA BA|eA BA|eA BA|G2 GB/d/|!
eA BA|eA BA|Be dB|A2:|!
A2|ed ef|g>a gf|ed eg|a2 g2|!
ed ef|g>a ge|dB gB|A2:|!

